!!!!SEGMENT: pl-wtm--r-1405--006_stefani-jozef--galop.krn
!!!cenid: 18xx:1879
!!!COM: Stefani, Józef
!!!COM-rismID: pe30024097
!!!CDT: 1800/04/16-1876/03/19
!!!CNT: Polish
!!!OTL: Galop
!!!PDT:
!!!AGN: Secular; Galop
!!!SMS-siglum: PL-Wtm
!!!SMS-shelfmark: R 1405
!!!SMS-shelfwork: 006 W
!!!SMS-variant:
!!!SMS-altvar:
!!!NIFC-rismSourceID: 1001117995
!!!NIFC-islandoraID: pl-wtm:25472
!!!URL-pdf-islandora: https://repozytorium.nifc.pl/islandora/object/pl-wtm%3A25472/datastream/PDF/view
!!!URL-scan: https://polish.musicsources.pl/pl/lokalizacje/galeria/rekopisy/6235 @EN{Scan on Polish Music Sources Website} @PL{Skany w portalu Dziedzictwo Muzyki Polskiej w otwartym dostępie}
!!!ONB-nifc: UWAGA: skan 0005-0006, str. 7-8, brak zakończenia utworu
!!!AIN: 1 forte
!!!key:
**kern	**kern	**dynam
*part1	*part1	*part1
*staff2	*staff1	*
*Iforte	*Iempty	*
*I"fortepian	*	*
*I'pf	*	*
*clefF4	*clefG2	*
*k[f#c#]	*k[f#c#]	*
*D:	*D:	*
*M2/4	*M2/4	*
=1	=1	=1
*>A	*	*
!	!LO:TX:rj:a:t=Galop	!
8r	8r	.
8A\L	8a\L	f
8E\	8cc#\	.
8C#\J	8ee\J	.
=2	=2	=2
4AA/	4gg\ 4ee\ 4cc#\ 4a\	.
8.r	8.r	.
*clefG2	*	*
16a#X/	16aa#X\|	.
=3	=3	=3
4b/	4bb\|	.
8.r	8.r	.
16f#/	16ff#\|	.
=4	=4	=4
4g/	4gg\|	.
8.r	8.r	.
16d#X/	16dd#X\|	.
=5	=5	=5
8e/	8ee\	.
8r	8r	.
8B/	8b\	.
8r	8r	.
=6	=6	=6
8qd/	(8qdd/	.
8c#/	8cc#\)	.
8r	8r	.
8A/	8a/	.
8r	16r	.
.	(16a/	.
!!LO:LB:g=original
=7	=7	=7
*clefF4	*	*
8D\L	8aa\ 8ff#\)	.
8d\J 8A\ 8F#\	8r	.
8D\L	8gg#X\ 8ee#X\ 8g#X\	.
8d\J 8B\ 8G#X\	8r	.
=8	=8	=8
8D\L	8ggn\ 8een\ 8gn\	.
8c#\J 8A\ 8Gn\	8r	.
8D\L	8ff#\ 8dd\ 8f#\	.
8d\J 8A\ 8F#\	8r	.
=9	=9	=9
.	(8qff#/	.
8D\L	8ee\L)	.
8e\J 8B-X\ 8G\	16r	.
.	16dd#X\K|	.
8D\L	8ee\|	.
8e\J 8c#\ 8A\ 8G\	16r	.
.	16ff#\Jk|	.
=10	=10	=10
8D\L	8dd'\L	.
8d\J 8A\ 8F#\	8ff#'\	.
*rep	*	*
8D\L	(8bb\	.
8d\J 8A\ 8F#\	8aa\J)	.
*Xrep	*	*
=11	=11	=11
8D\L	8aa\ 8ff#\ 8a\	.
8d\J 8A\ 8F#\	8r	.
8D\L	8gg#X\ 8ee#X\ 8g#X\	.
8d\J 8B\ 8G#X\	8r	.
=12	=12	=12
8D\L	8ggn\ 8een\ 8gn\	.
8c#\J 8A\ 8G\	8r	.
8D\L	8ff#\ 8dd\ 8f#\	.
8d\J 8A\ 8F#\	8r	.
!!LO:LB:g=original
=13	=13	=13
.	(8qff#/	.
8G\L	8ee\L)	.
8e\J 8B-X\	16r	.
.	16dd#X\K|	.
8A\L	8ee\|	.
8g\J 8e\ 8c#\	16r	.
.	16ff#\Jk|	.
=14	=14	=14
8D\L	8dd'\L	.
8f#\ 8d\ 8A\	(16ff#\L	.
.	16aa\JJ)	.
8f#\J 8d\ 8A\	8dd\	.
8r	16r	.
.	16a/|	.
.	.	p
=15	=15	=15
8D\L	(16aa\LL 16ff#\	.
.	16a\	.
8d\J 8A\ 8F#\	16aa\ 16ff#\	.
.	16a\JJ	.
8D\L	16gg#X\LL 16ee#X\	.
.	16g#X\	.
8d\J 8B\ 8G#X\	16gg#\ 16ee#\	.
.	16g#\JJ)	.
=16	=16	=16
8D\L	(16ggn\LL 16een\	.
.	16gn\	.
8c#\J 8A\ 8Gn\	16gg\ 16ee\	.
.	16g\JJ	.
8D\L	16ff#\LL 16dd\	.
.	16f#\	.
8d\J 8A\ 8F#\	16ff#\ 16dd\	.
.	16f#\JJ)	.
=17	=17	=17
.	(8qff#/	.
8D\L	8.ee\L)	.
8e\J 8B-X\ 8G\	.	.
.	16dd#X\K|	.
8D\L	8.ee\|	.
8e\J 8c#\ 8A\ 8G\	.	.
.	16ff#\Jk|	.
!!LO:LB:g=original
=18	=18	=18
8D\L	8dd\L|	.
8d\J 8A\ 8F#\	8ff#\|	.
*rep	*	*
8D\L	(8bb\	.
8d\J 8A\ 8F#\	8aa\J)	.
*Xrep	*	*
=19	=19	=19
8D\L	(16aa\LL 16ff#\	.
.	16a\	.
8d\J 8A\ 8F#\	16aa\ 16ff#\	.
.	16a\JJ	.
8D\L	16gg#X\LL 16ee#X\	.
.	16g#X\	.
8d\J 8B\ 8G#X\	16gg#\ 16ee#\	.
.	16g#\JJ)	.
=20	=20	=20
8D\L	(16ggn\LL 16een\	.
.	16gn\	.
8c#\J 8A\ 8Gn\	16gg\ 16ee\	.
.	16g\JJ	.
8D\L	16ff#\LL 16dd\	.
.	16f#\	.
8d\J 8A\ 8F#\	16ff#\ 16dd\	.
.	16f#\JJ)	.
=21	=21	=21
.	(8qff#/	.
8G\L	8.ee\L)	.
8e\J 8B-X\	.	.
.	16dd#X'\K	.
8A\L	8.ee'\	.
8g\J 8e\ 8c#\	.	.
.	16ff#'\Jk	.
=22	=22	=22
8f#\L 8d\	8dd'\L	.
8A\J	(16ff#\L	.
.	16aa\JJ)	.
8f#\ 8d\	8dd\	.
8r	8r	.
!!LO:LB:g=original
=23!|:	=23!|:	=23!|:
*>B	*	*
8EE/	8r	.
8d\L 8B\ 8E\	8ee\L 8e'\	.
8d\ 8B\ 8E\	8ff#\ 8f#'\	.
8d\J 8B\ 8E\	8gg#X\J 8g#X'\	.
=24	=24	=24
8EE/	8aa\L 8a'\	.
8c#\L 8A\ 8E\	8bb\ 8b'\	.
8c#\ 8A\ 8E\	8ccc#\ 8cc#'\	.
8c#\J 8A\ 8E\	8ddd\J 8dd'\	.
=25	=25	=25
8EE/	(>(>4fff#\ 4ff#\	.
8d\L 8B\ 8G#X\ 8E\	.	.
8d\ 8B\ 8G#\ 8E\	8eee\L 8ee\))	.
8d\J 8B\ 8G#\ 8E\	8bb\J 8b'\	.
=26	=26	=26
8EE/	8ccc#\L 8cc#'\	.
8c#\L 8A\ 8E\	8gg#X\J 8g#X'\	.
.	(8qbb/	.
8c#\ 8A\ 8E\	8aa\L)	.
8c#\J 8A\ 8E\	8ff#'\J	.
=27	=27	=27
8EE/	8r	.
8d\L 8B\ 8E\	8ee\L 8e'\	.
8d\ 8B\ 8E\	8ff#\ 8f#'\	.
8d\J 8B\ 8E\	8gg#X\J 8g#X'\	.
=28	=28	=28
8AA/	8aa\L 8a'\	.
8c#\L 8A\ 8E\	8bb\ 8b'\	.
8c#\ 8A\ 8E\	8ccc#\ 8cc#'\	.
8c#\J 8A\ 8E\	8ddd\J 8dd'\	.
=29	=29	=29
8D\L	(8gg#X\L	.
8d\J 8B\ 8F#\	16ff#\Jk)	.
.	16r	.
8E\L	(8dd\L	.
8d\J 8B\ 8G#X\	16b\Jk)	.
.	16r	.
!!LO:PB:g=original
=30	=30	=30
8A\L	8a'\L	.
16E\L	(16cc#\L	.
16C#\JJ	16ee\JJ)	f
8AA/	8aa\ 8ee\ 8cc#\ 8a\	.
8r	16r	.
.	(16a/	mf
=31	=31	=31
8D\L	8aa\ 8ff#\)	.
8d\J 8A\ 8F#\	8r	.
8D\L	8gg#X\ 8ee#X\ 8g#X\|	.
8d\J 8B\ 8G#X\	8r	.
=32	=32	=32
8D\L	8ggn\ 8een\ 8gn\|	.
8c#\J 8A\ 8Gn\	8r	.
8D\L	8ff#\ 8dd\ 8f#\|	.
8d\J 8A\ 8F#\	8r	.
=33	=33	=33
.	(8qff#/	.
8D\L	8ee\L)	.
8e\J 8B-X\ 8G\	16r	.
.	16dd#X\K|	.
8D\L	8ee\|	.
8e\J 8c#\ 8A\ 8G\	16r	.
.	16ff#\Jk|	.
=34	=34	=34
8D\L	8dd'\L	.
8d\J 8A\ 8F#\	8ff#'\	.
*rep	*	*
8D\L	(8bb\	.
8d\J 8A\ 8F#\	8aa\J)	.
*Xrep	*	*
=35	=35	=35
8D\L	(16aa\LL 16ff#\|	.
.	16a\	.
8d\J 8A\ 8F#\	16aa\ 16ff#\	.
.	16a\JJ	.
8D\L	16gg#X\LL 16ee#X\|	.
.	16g#X\	.
8d\J 8B\ 8G#X\	16gg#\ 16ee#\	.
.	16g#\JJ)	.
!!LO:LB:g=original
=36	=36	=36
8D\L	16ggn\LL 16een\	.
.	16g\	.
8c#\J 8A\ 8Gn\	16gg\ 16ee\	.
.	16g\JJ	.
8D\L	16ff#\LL 16dd\	.
.	16f#\	.
8d\J 8A\ 8F#\	16ff#\ 16dd\	.
.	16f#\JJ	.
=37	=37	=37
.	(8qff#/	.
8G\L	8ee\L)	.
8e\J 8B-X\	16r	.
.	16dd#X\K|	.
8A\L	8ee\|	.
8g\J 8e\ 8c#\	16r	.
.	16ff#\Jk|	.
=38	=38	=38
!LO:TX:t=1ma	!	!
*>B1	*	*
8f#\L 8d\	8ddn'\L	.
8A\J	(16ff#\L	.
.	16aa\JJ)	.
8f#\ 8d\	8dd\	.
8r	8r	.
=39:|!	=39:|!	=39:|!
!LO:TX:t=2	!	!
*>B2	*	*
16f#\LL 16d'\	16dd'\LL	.
(16d\	(16dd\	.
16c#\	16cc#\	.
16d\JJ	16dd\JJ	.
16e\LL	16ee\LL	.
16d\	16dd\	.
16cn\	16ccn\	.
16A\JJ)	16a\JJ)	.
=40	=40	=40
*>C	*	*
8d\ 8B\ 8G\	8gg\ 8g^<\	.
8r	8r	.
8d\ 8B\ 8G\	8bb\ 8b^<\	.
8r	8r	f
=41	=41	=41
4.d\ 4.B\ 4.G\	4.ddd\ 4.dd^<\	.
8e\ 8c#\ 8A#X\ 8G\	(16cc#X\LL	sf
.	16ee\JJ)	.
!!LO:LB:g=original
=42	=42	=42
8d\L 8B\ 8G\	8dd'\L	.
8e\J 8c#\ 8A#X\ 8G\	(16cc#\L	sf
.	16ee\JJ)	.
*rep	*rep	*
8d\L 8B\ 8G\	8dd'\L	.
8e\J 8c#\ 8A#\ 8G\	(16cc#\L	.
.	16ee\JJ)	.
*Xrep	*Xrep	*
=43	=43	=43
*2\right	*	*
*tremolo	*	*
8d\L 8B\ 8G\	8dd'\L	.
8d\ 8B\ 8G\	(16gg\L	.
.	16aa\JJ)	.
8d\ 8B\ 8G\	4bb\	.
8d\J 8B\ 8G\	.	.
*Xtremolo	*	*
=44	=44	=44
8Cn\L	(16bb\LL	.
.	16aa\)	.
8cn\ 8A\ 8E\	16dd#X'\	.
.	16ee'\JJ	.
8c\ 8A\ 8E\	4aa'^<\	.
8c\J 8A\ 8E\	.	.
=45	=45	=45
8D\L	(16aa\LL	.
.	16gg\)	.
8B\ 8G\	16cc#'\	.
.	16dd'\JJ	.
8B\ 8G\	[(4gg'\	.
8B\J 8G\	.	.
=46	=46	=46
8D\L	16gg]\LL	.
.	16ff#\)	.
8c#\ 8A\	16cccn'\	.
.	16aa'\JJ	.
8c#\ 8A\	16ff#'\LL	.
.	16dd'\	.
8c#\J 8A\	16ccn'\	.
.	16a'\JJ	.
=47	=47	=47
8GG/	(16g\LL	.
.	16b\	.
8B\L 8G\ 8D\	16dd\	.
.	16ee\JJ)	.
*tremolo	*	*
8B\ 8G\ 8D\	16dd'\LL	.
.	16dd'\	.
8B\J 8G\ 8D\	16dd'\	.
.	16dd'\JJ	.
*Xtremolo	*	*
!!LO:LB:g=original
=48	=48	=48
8d\ 8B\ 8G\	8gg\ 8g^<\	.
8r	8r	.
8d\ 8B\ 8G\	8bb\ 8b^<\	.
8r	8r	.
=49	=49	=49
!	!LO:N:vis=4	!
4.d\ 4.B\ 4.G\	4.ddd\ 4.dd\	.
8e\ 8c#\ 8A#X\ 8G\	(16dd\LL	.
.	16ee\JJ)	.
=50	=50	=50
8d\L 8B\ 8G\	8dd'\L	.
8e\J 8c#\ 8A#X\ 8G\	(16cc#\L	.
.	16ee\JJ)	.
*rep	*rep	*
8d\L 8B\ 8G\	8dd'\L	.
8e\J 8c#\ 8A#\ 8G\	(16cc#\L	.
.	16ee\JJ)	.
*Xrep	*Xrep	*
=51	=51	=51
*tremolo	*	*
8d\L 8B\ 8G\	8dd'\L	.
8d\ 8B\ 8G\	(16gg\L	.
.	16aa\JJ)	.
8d\ 8B\ 8G\	4bb\	.
8d\J 8B\ 8G\	.	.
=52	=52	=52
8Cn\L	(16bb\LL	.
*Xtremolo	*	*
.	16aa\)	.
8cn\ 8A\ 8E\	16dd#X'\	.
.	16ee'\JJ	.
8c\ 8A\ 8E\	4aa'\	.
8c\J 8A\ 8E\	.	.
=53	=53	=53
8D\L	(16aa\LL	.
.	16gg\)	.
8B\ 8G\	16cc#X'\	.
.	16dd'\JJ	.
8B\ 8G\	[4gg'\	.
8B\J 8G\	.	.
=54	=54	=54
8D\L	16gg\LL]	.
.	16ff#\	.
8c#\ 8A\	16cccn'\	.
.	16aa'\JJ	.
8c#\ 8A\	16ff#'\LL	.
.	16dd'\	.
8c#\J 8A\	16ee'\	.
.	16ff#'\JJ	.
=55	=55	=55
4B\ 4G\	4gg\	.
4r	8.r	.
!	!LO:TX:a:t=V&colon;S&colon;	!
.	(16a/	.
!!LO:PB:g=original
=56	=56	=56
8D\L	8aa\ 8ff#\)	mf
8d\J 8A\ 8F#\	8r	.
8D\L	8gg#X\ 8ee#X\ 8g#X\	.
8d\J 8B\ 8G#X\	8r	.
=57	=57	=57
8D\L	8ggn\ 8een\ 8gn\	.
8c#\J 8A\ 8Gn\	8r	.
8D\L	8ff#\ 8dd\ 8f#\	.
8d\J 8A\ 8F#\	8r	.
=58	=58	=58
.	(8qff#/	.
8D\L	8ee\L)	.
8e\J 8B-X\ 8G\	16r	.
.	16dd#X\K|	.
8D\L	8ee\|	.
8e\J 8c#\ 8A\ 8G\	16r	.
.	16ff#\Jk|	.
=59	=59	=59
8D\L	8ddn'\L	.
8d\J 8A\ 8F#\	8ff#'\	.
*rep	*	*
8D\L	(8bb\	.
8d\J 8A\ 8F#\	8aa\J)	f
*Xrep	*	*
=60	=60	=60
8D\L	(16aa\LL 16ff#\	.
.	16a\	.
8d\J 8A\ 8F#\	16aa\ 16ff#\	.
.	16a\JJ	.
8D\L	16gg#X\LL 16ee#X\	.
.	16g#X\	.
8d\J 8B\ 8G#X\	16gg#\ 16ee#\	.
.	16g#\JJ)	.
=61	=61	=61
8D\L	(16ggn\LL 16een\|	.
.	16gn\	.
8c#\J 8A\ 8Gn\	16gg\ 16ee\	.
.	16g\JJ	.
8D\L	16ff#\LL 16dd\|	.
.	16f#\	.
8d\J 8A\ 8F#\	16ff#\ 16dd\	.
.	16f#\JJ)	.
!!LO:LB:g=original
=62	=62	=62
.	(8qff#/	.
8G\L	8ee\L)	.
8e\J 8B-X\	16r	.
.	16dd#X\K|	.
8A\L	8.ee\|	.
8g\J 8e\ 8c#\	.	.
.	16ff#\Jk|	.
=63	=63	=63
8f#\L 8d\	8ddn'\L	.
8A\J	(16ff#\L	.
.	16aa\JJ)	.
8f#\ 8d\	8dd\	.
8r	8r	.
=64!|:	=64!|:	=64!|:
*>D	*	*
8EE/	8r	.
8d\L 8B\ 8E\	8ee\L 8e'\	.
8d\ 8B\ 8E\	8ff#\ 8f#'\	.
8d\J 8B\ 8E\	8gg#X\J 8g#X'\	.
=65	=65	=65
8EE/	8aa\L 8a'\	<
*tremolo	*	*
8c#\L 8A\ 8E\	8bb\ 8b'\	.
8c#\ 8A\ 8E\	8ccc#\ 8cc#'\	.
8c#\J 8A\ 8E\	8ddd\J 8dd'\	.
*Xtremolo	*	*
=66	=66	=66
8EE/	(4fff#\ (4ff#\	[ sf >
*tremolo	*	*
8d\L 8B\ 8G#X\ 8E\	.	.
8d\ 8B\ 8G#\ 8E\	8eee\L 8ee\))	.
8d\J 8B\ 8G#\ 8E\	8bb\J 8b'\	.
*Xtremolo	*	*
=67	=67	=67
8EE/	8ccc#\L 8cc#'\	]
*tremolo	*	*
8c#\L 8A\ 8E\	8gg#X\J 8g#X'\	.
.	(8qbb/	.
8c#\ 8A\ 8E\	8aa\L)	.
8c#\J 8A\ 8E\	8ff#'\J	.
*Xtremolo	*	*
=68	=68	=68
8EE/	8r	.
*tremolo	*	*
8d\L 8B\ 8E\	8ee\L 8e'\	<
8d\ 8B\ 8E\	8ff#\ 8f#'\	.
8d\J 8B\ 8E\	8gg#X\J 8g#X'\	[[
*Xtremolo	*	*
!!LO:LB:g=original
=69	=69	=69
8AA/	8aa\L 8a'\	.
*tremolo	*	*
8c#\L 8A\ 8E\	8bb\ 8b'\	.
8c#\ 8A\ 8E\	8ccc#\ 8cc#'\	.
8c#\J 8A\ 8E\	8ddd\J 8dd'\	.
*Xtremolo	*	*
=70	=70	=70
8D\L	(8gg#X\L	.
8d\J 8B\ 8F#\	16ff#\Jk)	.
.	16r	.
8E\L	(8dd\L	.
8d\J 8B\ 8G#X\	16b\Jk)	.
.	16r	.
=71	=71	=71
8A\L	8a'\L	.
16E\L	(16cc#\L	.
16C#\JJ	16ee\JJ)	f
8AA/	8aa\ 8ee\ 8cc#\ 8a\	.
8r	16r	.
.	(16a/	mf
=72	=72	=72
8D\L	8aa\ 8ff#\)	.
8d\J 8A\ 8F#\	8r	.
8D\L	8gg#X\ 8ee#X\ 8g#X\|	.
8d\J 8B\ 8G#X\	8r	.
=73	=73	=73
8D\L	8ggn\ 8een\ 8gn\|	.
8c#\J 8A\ 8Gn\	8r	.
8D\L	8ff#\ 8dd\ 8f#\|	.
8d\J 8A\ 8F#\	8r	.
=74	=74	=74
.	(8qff#/	.
8D\L	8ee\L)	.
8e\J 8B-X\ 8G\	16r	.
.	16dd#X\K|	.
8D\L	8ee\|	.
8e\J 8c#\ 8A\ 8G\	16r	.
.	16ff#\Jk|	.
=75	=75	=75
8D\L	8dd'\L	.
8d\J 8A\ 8F#\	8ff#'\	.
*rep	*	*
8D\L	(8bb\	.
8d\J 8A\ 8F#\	8aa\J)	.
*Xrep	*	*
!!LO:LB:g=original
=76	=76	=76
!	!	!LO:DY:rj
8D\L	(16aa\LL 16ff#\	f
.	16a\	.
8d\J 8A\ 8F#\	16aa\ 16ff#\	.
.	16a\JJ	.
8D\L	16gg#X\LL 16ee#X\	.
.	16g#X\	.
8d\J 8B\ 8G#X\	16gg#\ 16ee#\	.
.	16g#\JJ	.
=77	=77	=77
8D\L	16ggn\LL 16een\	.
.	16gn\	.
8c#\J 8A\ 8Gn\	16gg\ 16ee\	.
.	16gn\JJ	.
8D\L	16ff#\LL 16dd\	.
.	16f#\	.
8d\J 8A\ 8F#\	16ff#\ 16dd\	.
.	16f#\JJ)	.
=78	=78	=78
.	(8qff#/	.
8G\L	8.ee\L)	.
8e\J 8B-X\	.	.
.	16dd#X\K|	.
8A\L	8.ee\|	.
8g\J 8e\ 8c#\	.	.
.	16ff#\Jk|	.
=79	=79	=79
8f#\L 8d\	8ddn'\L	.
8A\	(16ff#\L	.
.	16aa\JJ)	.
8f#\J 8d\	8dd\	.
8r	8r	.
=80:|!|:	=80:|!|:	=80:|!|:
*>E	*	*
16F#\LL	(4ff#\	mf
16f#\	.	.
16c#\ 16A#X\	.	.
16e\JJ	.	.
*rep	*	*
16F#\LL	8ee\L)	.
16f#\	.	.
16c#\ 16A#\	8cc#'\J	.
16e\JJ	.	.
*Xrep	*	*
!!LO:LB:g=original
=81	=81	=81
16F#\LL	(4ff#\	.
16d\	.	.
16B\	.	.
16d\JJ	.	.
*rep	*	*
16F#\LL	8dd\L)	.
16d\	.	.
16B\	8b'\J	.
16d\JJ	.	.
*Xrep	*	*
=82	=82	=82
!	!	!LO:DY:rj
16F#\LL	16a#X\LL	f
*Xrep	*	*
16e\	16f#\	.
16c#\ 16A#X\	16a#\	.
16e\JJ 16c#\	16cc#\JJ	.
!	!LO:TX:t=P:problem=mixed beam	!
*rep	*	*
16F#\LL	16ff#\LL	.
16e\	16f#/	.
16c#\ 16A#\	16ff#\	.
16e\JJ 16c#\	16f#/JJ	.
*Xrep	*	*
=83	=83	=83
16F#\LL	16b/LL	.
16d\	16f#/	.
16B\	16b/	.
16d\JJ	16dd/JJ	.
!	!LO:TX:t=P:problem=mixed beam	!
*rep	*	*
16F#\LL	16ff#\LL	.
16d\	16f#/	.
16B\	16ff#\	.
16d\JJ	16f#/JJ	.
*Xrep	*	*
=84	=84	=84
16E\LL	4ee\	mf
16d\	.	.
16B\ 16G#X\	.	.
16d\JJ	.	.
*rep	*	*
16E\LL	8dd\L	.
16d\	.	.
16B\ 16G#\	8b\J	.
16d\JJ	.	.
*Xrep	*	*
=85	=85	=85
16E\LL	4ee\	.
16c#\	.	.
16A\	.	.
16c#\JJ	.	.
*rep	*	*
16E\LL	8cc#\L	.
16c#\	.	.
16A\	8a\J	.
16c#\JJ	.	.
*Xrep	*	*
=86	=86	=86
16E\LL	16g#X/LL	f
16d\	16e/	.
16B\ 16G#X\	16g#/	.
16d\JJ	16b/JJ	.
!	!LO:TX:t=P:problem=mixed beam	!
*rep	*	*
16E\LL	16ee\LL	.
16d\	16e/	.
16B\ 16G#\	16ee\	.
16d\JJ	16g#X/JJ	.
*Xrep	*	*
!!LO:LB:g=original
=87	=87	=87
8c#\L 8A\	8a\L	.
16E\L	16cc#\L	.
16C#\JJ	16ee\JJ	f
8AA/	8aa\ 8ee\ 8cc#\ 8a\	.
8r	16r	.
.	(16a/	.
.	.	mf
=88	=88	=88
8D\L	8aa\ 8ff#\)	.
8d\J 8A\ 8F#\	8r	.
8D\L	8gg#X\ 8ee#X\ 8g#X\	.
8d\J 8B\ 8G#X\	8r	.
=89	=89	=89
8D\L	8ggn\ 8een\ 8gn\	.
8c#\J 8A\ 8Gn\	8r	.
8D\L	8ff#\ 8dd\ 8f#\	.
8d\J 8A\ 8F#\	8r	.
=90	=90	=90
.	(8qff#/	.
8D\L	8ee\L)	.
8e\J 8B-X\ 8G\	16r	.
.	16dd#X\K|	.
8D\L	8ee\|	.
8e\J 8c#\ 8A\ 8G\	16r	.
.	16ff#\Jk|	.
=91	=91	=91
8D\L	8ddn'\L	.
8d\J 8A\ 8F#\	8ff#'\	.
*rep	*	*
8D\L	(8bb^<\	.
8d\J 8A\ 8F#\	8aa\J)	.
*Xrep	*	*
!!LO:PB:g=original
=92	=92	=92
!	!	!LO:DY:rj
8D\L	(16aa\LL 16ff#\|	f
.	16a\	.
8d\J 8A\ 8F#\	16aa\ 16ff#\	.
.	16a\JJ	.
8D\L	16gg#X\LL 16ee#X\|	.
.	16g#X\	.
8d\J 8B\ 8G#X\	16gg#\ 16ee#\	.
.	16g#\JJ)	.
=93	=93	=93
8D\L	16ggn\LL 16een\	.
.	16gn\	.
8c#\J 8A\ 8Gn\	16gg\ 16ee\	.
.	16gn\JJ	.
8D\L	16ff#\LL 16dd\	.
.	16f#\	.
8d\J 8A\ 8F#\	16ff#\ 16dd\	.
.	16f#\JJ	.
=94	=94	=94
.	(8qff#/	.
8G\L	8.ee\L)	.
8e\J 8B-X\	.	.
.	16dd#X\K|	.
8A\L	8.ee\|	.
8g\J 8e\ 8c#\	.	.
.	16ff#\Jk|	.
=95	=95	=95
*>E1	*	*
8f#\L 8d\	8ddn'\L	.
8A\J	(16ff#\L	.
.	16aa\JJ)	.
8f#\ 8d\	8dd\	.
8r	8r	.
!!LO:LB:g=original
=96:|!	=96:|!	=96:|!
*>E2	*	*
!	!	!LO:DY:rj
16f#\LL 16d\	8dd'\L	f
16D\	.	.
16F#\	(16ff#\L	.
16A\JJ	16aa\JJ)	.
8d\L	8ddd\L	.
(8A#X'\J	(8aa#X'^<\J	.
=97	=97	=97
*>F	*	*
8B\L)	8bb\L)	.
(8F#\	(8ff#^<\|	.
8G\)	8gg\)	.
8E\J	8ee'\J|	.
=98	=98	=98
16F#\LL 16D\ 16AA\	(16dd\LL	.
16A\	16a\	.
16F#\ 16D\ 16AA\	16dd\	.
16A\JJ	16ff#\JJ	.
!	!LO:TX:t=P:problem=mixed beam	!
*rep	*	*
16F#\LL 16D\ 16AA\	16aa\LL	.
16A\	16a/	.
16F#\ 16D\ 16AA\	16aa\	.
16A\JJ	16a/JJ)	.
*Xrep	*	*
=99	=99	=99
16E\LL 16C#\ 16AA\	(16dd\LL	.
16A\	16a\	.
16E\ 16C#\ 16AA\	16dd\	.
16A\JJ	16ff#\JJ	.
!	!LO:TX:t=P:problem=mixed beam	!
*rep	*	*
16E\LL 16C#\ 16AA\	16aa\LL	.
16A\	16a/	.
16E\ 16C#\ 16AA\	16aa\	.
16A\JJ	16a/JJ)	.
*Xrep	*	*
=100	=100	=100
8D'\L	8dd'\L	.
(16F#\L	(16ff#\L	.
16A\JJ)	16aa\JJ)	.
8d\L	8ddd\L	.
(8A#X\J	(8aa#X'^<\J	.
=101	=101	=101
8B\L)	8bb\L)	.
(8F#\	(8ff#^<\|	.
8G\)	8gg\)	.
8E'\J	8ee'\J	.
!!LO:LB:g=original
=102	=102	=102
16F#\LL 16D\ 16AA\	(16dd\LL	.
16A\	16a\	.
16F#\ 16D\ 16AA\	16dd\	.
16A\JJ	16ff#\JJ	.
!	!LO:TX:t=P:problem=mixed beam	!
*rep	*	*
16F#\LL 16D\ 16AA\	16aa\LL	.
16A\	16a/	.
16F#\ 16D\ 16AA\	16aa\	.
16A\JJ	16a/JJ)	.
*Xrep	*	*
=103	=103	=103
16E\LL 16C#\ 16AA\	(16cc#\LL	.
16A\	16a\	.
16E\ 16C#\ 16AA\	16cc#\	.
16A\JJ	16ee\JJ	.
!	!LO:TX:t=P:problem=mixed beam	!
*rep	*	*
16E\LL 16C#\ 16AA\	16aa\LL	.
16A\	16a/	.
16E\ 16C#\ 16AA\	16aa\	.
16A\JJ	16a/JJ)	.
*Xrep	*	*
=104	=104	=104
8F#\ 8D\	8dd\	.
4ryy	(16gg#X\LL 16ee#X\	.
.	16aa\JJ 16ff#\)	.
.	8aa\L 8ff#'\	.
8A\ 8E\ 8AA\	8ccc#\J 8ggn\ 8een'\	.
=105	=105	=105
8A\ 8F#\ 8D\	8ddd\ 8aa\ 8ff#\ 8dd\	.
4ryy	(16gg#X\LL 16ee#X\	.
.	16aa\JJ 16ff#\)	.
.	8aa\L 8ff#\	.
8A\ 8E\ 8AA\	8ccc#\J 8aan\ 8gg#\ 8een\	.
=106	=106	=106
*rep	*rep	*
8A\ 8F#\ 8D\	8ddd\ 8aa\ 8ff#\ 8dd\	.
4ryy	(16gg#X\LL 16ee#X\	.
.	16aa\JJ 16ff#\)	.
.	8aa\L 8ff#\	.
8A\ 8E\ 8AA\	8ccc#\J 8aan\ 8gg#\ 8een\	.
*Xrep	*Xrep	*
=107	=107	=107
*rep	*rep	*
8A\ 8F#\ 8D\	8ddd\ 8aa\ 8ff#\ 8dd\	.
4ryy	(16gg#X\LL 16ee#X\	.
.	16aa\JJ 16ff#\)	.
.	8aa\L 8ff#\	.
8A\ 8E\ 8AA\	8ccc#\J 8aan\ 8gg#\ 8een\	.
*Xrep	*Xrep	*
==	==	==
*-	*-	*-
!!!system-decoration: {(s1,s2)}
!!!RDF**kern: > = above
!!!RDF**kern: < = below
!!!RDF**kern: | = vertical stroke
!!!EED: Leszek Kubiak
!!!EEV: 2021-05-05
!!!ENC: Tomasz Grochalski
!!!END: 2021-04-16
!!!YEC: Copyright 2022 Narodowy Instytut Fryderyka Chopina (https://polishscores.org)
!!!YEM: Licence CC BY 4.0 (https://creativecommons.org/licenses/by/4.0)
